images_breeze_svg/cmd/32/calculate.svg

<svg height="32" viewBox="0 0 32 32" width="32" xmlns="http://www.w3.org/2000/svg"><path d="m6 4v1 18.99995h1 2.99999l1.00001.00005v2l.00003 1.00005 6.99997-.00005-.00003-1.00005-5.99997.00005v-16.99996l13-.00004v8.33331h1v-8.33331-1l-4.00004-.00001v-3.99999h-.99996-14zm1 1h14v2.99999l-10 .00005v1l.00003 14.00002-1.00001-.00005h-2.99999z" fill="#4d4d4d" stroke-width="1.33333"/><path d="m23 18a5 5 0 0 0 -5 5 5 5 0 0 0 .697266 2.535156l.609375-.609375a4.1666667 4.1666667 0 0 1 -.472657-1.925781 4.1666667 4.1666667 0 0 1 4.166016-4.166016 4.1666667 4.1666667 0 0 1 1.923828.47461l.611328-.611328a5 5 0 0 0 -2.535156-.697266zm4.302734 2.464844-.609375.609375a4.1666667 4.1666667 0 0 1 .472657 1.925781 4.1666667 4.1666667 0 0 1 -4.166016 4.166016 4.1666667 4.1666667 0 0 1 -1.923828-.47461l-.611328.611328a5 5 0 0 0 2.535156.697266 5 5 0 0 0 5-5 5 5 0 0 0 -.697266-2.535156z" fill="#1d99f3"/></svg>

<?xml version="1.0" encoding="UTF-8" standalone="no"?>
<svg
   xmlns:dc="http://purl.org/dc/elements/1.1/"
   xmlns:cc="http://creativecommons.org/ns#"
   xmlns:rdf="http://www.w3.org/1999/02/22-rdf-syntax-ns#"
   xmlns:svg="http://www.w3.org/2000/svg"
   xmlns="http://www.w3.org/2000/svg"
   xmlns:sodipodi="http://sodipodi.sourceforge.net/DTD/sodipodi-0.dtd"
   xmlns:inkscape="http://www.inkscape.org/namespaces/inkscape"
   viewBox="0 0 32 32"
   version="1.1"
   id="svg6"
   sodipodi:docname="calculate.svg"
   width="32"
   height="32"
   inkscape:version="0.92.4 (unknown)"
   inkscape:export-filename="/home/rizmut/Dokumen/Rizmut/Github/libreoffice-style-breeze/images_breeze/cmd/32/calculate.png"
   inkscape:export-xdpi="96"
   inkscape:export-ydpi="96">
  <metadata
     id="metadata12">
    <rdf:RDF>
      <cc:Work
         rdf:about="">
        <dc:format>image/svg+xml</dc:format>
        <dc:type
           rdf:resource="http://purl.org/dc/dcmitype/StillImage" />
        <dc:title></dc:title>
      </cc:Work>
    </rdf:RDF>
  </metadata>
  <defs
     id="defs10" />
  <sodipodi:namedview
     pagecolor="#ffffff"
     bordercolor="#666666"
     borderopacity="1"
     objecttolerance="10"
     gridtolerance="10"
     guidetolerance="10"
     inkscape:pageopacity="0"
     inkscape:pageshadow="2"
     inkscape:window-width="1360"
     inkscape:window-height="714"
     id="namedview8"
     showgrid="true"
     inkscape:zoom="13.906433"
     inkscape:cx="14.924085"
     inkscape:cy="17.285537"
     inkscape:window-x="0"
     inkscape:window-y="28"
     inkscape:window-maximized="1"
     inkscape:current-layer="svg6">
    <inkscape:grid
       type="xygrid"
       id="grid826" />
  </sodipodi:namedview>
  <path
     style="fill:#4d4d4d;stroke-width:1.33333004"
     inkscape:connector-curvature="0"
     d="M 6,4 V 5 23.99995 H 7 9.99999 L 11,24 v 2 l 3e-5,1.00005 L 18,27 17.99997,25.99995 12,26 V 9.00004 L 25,9 v 8.33331 h 1 V 9 8 l -4.00004,-10e-6 V 4 H 21 7 Z m 1,1 h 14 v 2.99999 l -10,5e-5 v 1 l 3e-5,14.00002 -1.00001,-5e-5 H 7.00003 Z"
     id="path2"
     sodipodi:nodetypes="ccccccccccccccccccccccccccccccc" />
  <path
     inkscape:connector-curvature="0"
     style="fill:#1d99f3"
     d="m 23,18 a 5,5 0 0 0 -5,5 5,5 0 0 0 0.697266,2.535156 l 0.609375,-0.609375 A 4.1666667,4.1666667 0 0 1 18.833984,23 4.1666667,4.1666667 0 0 1 23,18.833984 a 4.1666667,4.1666667 0 0 1 1.923828,0.47461 l 0.611328,-0.611328 A 5,5 0 0 0 23,18 Z m 4.302734,2.464844 -0.609375,0.609375 A 4.1666667,4.1666667 0 0 1 27.166016,23 4.1666667,4.1666667 0 0 1 23,27.166016 4.1666667,4.1666667 0 0 1 21.076172,26.691406 l -0.611328,0.611328 A 5,5 0 0 0 23,28 5,5 0 0 0 28,23 5,5 0 0 0 27.302734,20.464844 Z"
     id="path2-2" />
</svg>
